lib/assets/icons/svg/outlined-action-send.svg

<svg xmlns="http://www.w3.org/2000/svg" viewBox="0 0 24 24"><path d="M13.354 20.49a1.7 1.7 0 0 1-1.65-1.29l-1.3-5.23a.691.691 0 0 0-.52-.48l-5.06-1.18a1.66 1.66 0 0 1-1.2-1 1.7 1.7 0 0 1 .94-2.2l13.6-5.48c1.226-.478 2.511.55 2.312 1.852a1.75 1.75 0 0 1-.092.348l-5.46 13.59a1.692 1.692 0 0 1-1.16 1 1.965 1.965 0 0 1-.41.07zm5.45-16a.757.757 0 0 0-.26 0l-13.61 5.53a.69.69 0 0 0-.38.9c.079.214.265.37.49.41l5.06 1.16a1.67 1.67 0 0 1 1.27 1.24l1.29 5.23a.69.69 0 0 0 1.32.09l5.47-13.56a.7.7 0 0 0-.39-.9.807.807 0 0 0-.26-.1z"/></svg>

<svg viewBox="0 0 24 24" xmlns="http://www.w3.org/2000/svg">
  <path  d="M 13.354 20.49 C 12.573 20.49 11.892 19.958 11.704 19.2 L 10.404 13.97 C 10.332 13.727 10.132 13.542 9.884 13.49 L 4.824 12.31 C 4.282 12.197 3.832 11.822 3.624 11.31 C 3.281 10.443 3.7 9.461 4.564 9.11 L 18.164 3.63 C 19.39 3.152 20.675 4.18 20.476 5.482 C 20.457 5.601 20.427 5.717 20.384 5.83 L 14.924 19.42 C 14.719 19.919 14.288 20.291 13.764 20.42 C 13.63 20.458 13.493 20.481 13.354 20.49 Z M 18.804 4.49 C 18.718 4.475 18.63 4.475 18.544 4.49 L 4.934 10.02 C 4.58 10.163 4.41 10.567 4.554 10.92 C 4.633 11.134 4.819 11.29 5.044 11.33 L 10.104 12.49 C 10.73 12.626 11.224 13.107 11.374 13.73 L 11.374 13.73 L 12.664 18.96 C 12.78 19.478 13.414 19.677 13.805 19.317 C 13.885 19.243 13.946 19.152 13.984 19.05 L 19.454 5.49 C 19.591 5.134 19.418 4.734 19.064 4.59 C 18.984 4.542 18.896 4.508 18.804 4.49 Z"/>
</svg>
